X:1
T:When the Trump Shall Sound
T:When the Trump Shall Sound
T:Minnis Randolph Hayes
T:Laurene Highfield, 1919
T:Public Domain Courtesy of the Cyber Hymnal™
T:Public Domain Courtesy of the Cyber Hymnal™
C:Minnis Randolph Hayes
Z:Public Domain
Z:Courtesy of the Cyber Hymnal™
%%score ( 1 2 ) ( 3 4 )
L:1/8
Q:1/4=95
M:4/4
K:Ab
V:1 treble 
V:2 treble 
V:3 bass 
V:4 bass 
V:1
 [Ec]>[DB] | [CA]>[CB] [CA]>[DF] [CE]2 [CA]>[DB] | [Ec]>[=D=B] [Ec]>[F_d] [Ec]2 [Ec]>[_D_B] | %3
w: 1.~When the|trump of God shall sound, And the|books are o- pened wide That the|
w: 2.~When the|fi- nal trump shall sound, And the|Sav- ior shall des- cend Through the|
w: 3.~When the|trump of God shall sound, And the|Lord shall sep- a- rate From the|
 [CA]>[CA] [CA]>[CA] [=DB]>[DA] [DB]>[Dc] | [EB]6 [Ec]>[DB] | [CA]>[CB] [CA]>[DF] [CE]2 [CA]>[DB] | %6
w: deeds which men have done may there be|read, Will the|Mas- ter’s voice be heard, Call- ing|
w: clouds that hide from me His shin- ing|face, Can you|bid Him quick- ly come, Thank- ful|
w: worth- less chaff His pre- cious grains of|wheat, Will He|bid you go or stay, What think|
 [Ec]>[=D=B] [Ec]>[F_d] [Ec]2 [Ec]>[E_B] | [FA]>[FA] [EA]>[FB] [Ec]>[Ec] [DB]>[Ec] | [CA]6 || %9
w: you un- to His side, When He|comes to judge the liv- ing and the|dead?|
w: that He is your friend, Know- ing|well He has re- deemed you by His|grace?|
w: you will be your fate, When the|Mas- ter comes up- on the judg- ment|day?|
"^Refrain" c>d | e4- e>e c>=B | c6 [EA]>[EB] | [Ac]>[Ad] [Ae]>[Af] [Ae]>[Ac] [EB]>[FA] | B6 c>d | %14
w: When the|trump * of God shall|sound, Can you|come in- to His pre- sence un- a-|fraid? Can you|
w: |||||
w: |||||
 e4- e>e c>=B | c6 [EA]>[EB] | [Ac]>[Ad] [Ae]>[Af] [Ae]>[Ac] [GB]>[Gc] | (A3/2 A4-) [EA]2 |] %18
w: wait * with joy- ful|heart, While the|Mas- ter reads the re- cord you have|made? * *|
w: ||||
w: ||||
V:2
 x2 | x8 | x8 | x8 | x8 | x8 | x8 | x8 | x6 || x2 | (A>AG>G A2) x2 | (A>AA>A A2) x2 | x8 | %13
 (G>GG>G G2) x2 | (A>AG>G A2) x2 | (A>AA>A A2) x2 | x8 | x3/2 F<EF/ x7/2 |] %18
V:3
 [A,,A,]>[A,,A,] | [A,,A,]>[A,,A,] [A,,A,]>[A,,A,] [A,,A,]2 [A,,E,]>[A,,E,] | %2
w: ~ ~|~ ~ ~ ~ ~ ~ ~|
 [A,,A,]>[A,,A,] [A,,A,]>[A,,A,] [A,,A,]2 A,>[E,G,] | %3
w: ~ ~ ~ ~ ~ ~ ~|
 [F,A,]>[F,A,] [F,A,]>[F,A,] [B,,A,]>[B,,F,] [B,,F,]>[B,,A,] | [E,G,]6 [A,,A,]>[A,,A,] | %5
w: ~ ~ ~ ~ ~ ~ ~ ~|~ ~ ~|
 [A,,A,]>[A,,A,] [A,,A,]>[A,,A,] [A,,A,]2 [A,,E,]>[A,,E,] | %6
w: ~ ~ ~ ~ ~ ~ ~|
 [A,,A,]>[A,,A,] [A,,A,]>[A,,A,] [A,,A,]2 A,>[A,C] | %7
w: ~ ~ ~ ~ ~ ~ ~|
 [F,C]>[F,C] [C,A,]>[D,A,] [E,A,]>[E,A,] [E,G,]>[E,G,] | [A,,A,]6 || z2 | %10
w: ~ ~ ~ ~ ~ ~ ~ ~|~||
 [A,C]>[A,C] [E,B,]>[E,B,] [A,C]2 z2 | [A,E]>[A,E] [D,F]>[D,F] [A,E]2 [A,C]>[A,D] | %12
w: When the trump shall sound,|When the trump shall sound, ~ ~|
 [A,E]>[A,B,] [A,C]>[A,D] [A,C]>[A,E] [G,E]>[F,=D] | [E,E]>[E,E] [E,E]>[E,E] [E,E]2 z2 | %14
w: ~ ~ ~ ~ ~ ~ ~ ~|~ come un- a- fraid?|
 [A,C]>[A,C] [E,B,]>[E,B,] [A,C]2 z2 | [A,E]>[A,E] [F,F]>[F,F] [A,E]2 [A,C]>[A,D] | %16
w: Can you calm- ly wait,|Wait with joy- ful heart, ~ ~|
 [A,E]>[A,B,] [A,C]>[D,D] [E,C]>[E,D] [E,C]>[E,E] | C>=B, C>D [A,,C]2 x3/2 |] %18
w: ~ ~ ~ ~ ~ ~ ~ ~|~ that you have made?|
V:4
 x2 | x8 | x6 A,3/2 x/ | x8 | x8 | x8 | x6 A,3/2 x/ | x8 | x6 || x2 | x8 | x8 | x8 | x8 | x8 | x8 | %16
 x8 | A,,4- x7/2 |] %18

